images/fb.svg

<svg width="24" height="24" viewBox="0 0 24 24" fill="none" xmlns="http://www.w3.org/2000/svg">
<path fill-rule="evenodd" clip-rule="evenodd" d="M6.18182 10.3333C5.20406 10.3333 5 10.5252 5 11.4444V13.1111C5 14.0304 5.20406 14.2222 6.18182 14.2222H8.54545V20.8889C8.54545 21.8081 8.74951 22 9.72727 22H12.0909C13.0687 22 13.2727 21.8081 13.2727 20.8889V14.2222H15.9267C16.6683 14.2222 16.8594 14.0867 17.0631 13.4164L17.5696 11.7497C17.9185 10.6014 17.7035 10.3333 16.4332 10.3333H13.2727V7.55556C13.2727 6.94191 13.8018 6.44444 14.4545 6.44444H17.8182C18.7959 6.44444 19 6.25259 19 5.33333V3.11111C19 2.19185 18.7959 2 17.8182 2H14.4545C11.191 2 8.54545 4.48731 8.54545 7.55556V10.3333H6.18182Z" fill="#AEAEAE"/>
</svg>

<svg xmlns="http://www.w3.org/2000/svg" width="24" height="24" fill="none"><path fill="#AEAEAE" fill-rule="evenodd" d="M6.182 10.333c-.978 0-1.182.192-1.182 1.111v1.667c0 .92.204 1.111 1.182 1.111h2.363v6.667c0 .92.205 1.111 1.182 1.111h2.364c.978 0 1.182-.192 1.182-1.111v-6.667h2.654c.741 0 .932-.135 1.136-.806l.507-1.666c.349-1.149.133-1.417-1.137-1.417h-3.16V7.556c0-.614.529-1.112 1.181-1.112h3.364c.978 0 1.182-.191 1.182-1.11V3.11C19 2.191 18.796 2 17.818 2h-3.364c-3.263 0-5.909 2.487-5.909 5.556v2.777z" clip-rule="evenodd"/></svg>
